; G-Code generated by Simplify3D(R) Version 4.1.2
; Sep 2, 2020 at 11:40:57 AM
; Settings Summary
;   processName,Process1
;   applyToModels,Disconnector
;   profileName,CORE A1v2 PLA  Loja3D- Q.ALTA (modified)
;   profileVersion,2020-08-12 20:04:45
;   baseProfile,ABS Q. MEDIA
;   printMaterial,
;   printQuality,
;   printExtruders,
;   extruderName,Extruder 1
;   extruderToolheadNumber,0
;   extruderDiameter,0.4
;   extruderAutoWidth,0
;   extruderWidth,0.44
;   extrusionMultiplier,0.9
;   extruderUseRetract,1
;   extruderRetractionDistance,3.5
;   extruderExtraRestartDistance,0
;   extruderRetractionZLift,0
;   extruderRetractionSpeed,3600
;   extruderUseCoasting,1
;   extruderCoastingDistance,0.1
;   extruderUseWipe,1
;   extruderWipeDistance,2
;   primaryExtruder,0
;   layerHeight,0.1
;   topSolidLayers,9
;   bottomSolidLayers,6
;   perimeterOutlines,3
;   printPerimetersInsideOut,1
;   startPointOption,3
;   startPointOriginX,0
;   startPointOriginY,0
;   sequentialIslands,0
;   spiralVaseMode,0
;   firstLayerHeightPercentage,300
;   firstLayerWidthPercentage,150
;   firstLayerUnderspeed,0.4
;   useRaft,0
;   raftExtruder,0
;   raftTopLayers,3
;   raftBaseLayers,2
;   raftOffset,3
;   raftSeparationDistance,0.14
;   raftTopInfill,100
;   aboveRaftSpeedMultiplier,0.3
;   useSkirt,1
;   skirtExtruder,0
;   skirtLayers,1
;   skirtOutlines,2
;   skirtOffset,5
;   usePrimePillar,0
;   primePillarExtruder,999
;   primePillarWidth,12
;   primePillarLocation,7
;   primePillarSpeedMultiplier,1
;   useOozeShield,0
;   oozeShieldExtruder,999
;   oozeShieldOffset,2
;   oozeShieldOutlines,1
;   oozeShieldSidewallShape,1
;   oozeShieldSidewallAngle,30
;   oozeShieldSpeedMultiplier,1
;   infillExtruder,0
;   internalInfillPattern,Rectilinear
;   externalInfillPattern,Rectilinear
;   infillPercentage,10
;   outlineOverlapPercentage,15
;   infillExtrusionWidthPercentage,100
;   minInfillLength,5
;   infillLayerInterval,2
;   internalInfillAngles,45,-45
;   overlapInternalInfillAngles,0
;   externalInfillAngles,45,-45
;   generateSupport,1
;   supportExtruder,0
;   supportInfillPercentage,30
;   supportExtraInflation,0.4
;   supportBaseLayers,0
;   denseSupportExtruder,0
;   denseSupportLayers,0
;   denseSupportInfillPercentage,70
;   supportLayerInterval,2
;   supportHorizontalPartOffset,0.4
;   supportUpperSeparationLayers,1
;   supportLowerSeparationLayers,1
;   supportType,0
;   supportGridSpacing,4
;   maxOverhangAngle,60
;   supportAngles,45
;   temperatureName,Extruder 1 Temperature,Heated Bed
;   temperatureNumber,0,0
;   temperatureSetpointCount,2,1
;   temperatureSetpointLayers,1,2,1
;   temperatureSetpointTemperatures,230,210,60
;   temperatureStabilizeAtStartup,1,1
;   temperatureHeatedBed,0,1
;   fanLayers,1,3
;   fanSpeeds,0,100
;   blipFanToFullPower,1
;   adjustSpeedForCooling,1
;   minSpeedLayerTime,25
;   minCoolingSpeedSlowdown,40
;   increaseFanForCooling,1
;   minFanLayerTime,45
;   maxCoolingFanSpeed,100
;   increaseFanForBridging,1
;   bridgingFanSpeed,100
;   use5D,1
;   relativeEdistances,0
;   allowEaxisZeroing,1
;   independentExtruderAxes,0
;   includeM10123,0
;   stickySupport,1
;   applyToolheadOffsets,0
;   gcodeXoffset,0
;   gcodeYoffset,0
;   gcodeZoffset,0
;   overrideMachineDefinition,1
;   machineTypeOverride,0
;   strokeXoverride,300
;   strokeYoverride,200
;   strokeZoverride,300
;   originOffsetXoverride,0
;   originOffsetYoverride,0
;   originOffsetZoverride,0
;   homeXdirOverride,-1
;   homeYdirOverride,-1
;   homeZdirOverride,-1
;   flipXoverride,1
;   flipYoverride,-1
;   flipZoverride,1
;   toolheadOffsets,0,0|0,0|0,0|0,0|0,0|0,0
;   overrideFirmwareConfiguration,0
;   firmwareTypeOverride,RepRap (Marlin/Repetier/Sprinter)
;   GPXconfigOverride,r2
;   baudRateOverride,115200
;   overridePrinterModels,0
;   printerModelsOverride
;   startingGcode,M109 S100; FAZ AQUECIMENTO DO BICO,M402,G28; HOME GERAL,M400,G29 V4 T ; AUTO NIVELAMENTO,M400,M104 S[extruder0_temperature]; FAZ PRE AQUECIMENTO DO BICO,G1 X1 Y1 Z0.8 F1000; VAI PRA PONTO DE PURGA,M109 S[extruder0_temperature]; FAZ AQUECIMENTO DO BICO,G92 E0; RESETA EXTRUSOR,G1 X1.0 E9.0 F1000.0 ; PURGA,G1 X100.0 E12.5 F1000.0 ; PURGA,M117 IMPRIMINDO...,M400
;   layerChangeGcode,
;   retractionGcode,
;   toolChangeGcode,
;   endingGcode,M107 ; DESLIGA FAN,G1 X-8,G1 Y100,G1 Z300,M104 S0 ; DESLIGA AQUECIMENTO BICO,M140 S0 ; DESLIGA AQUECIMENTO MESA,M84 ; DESLIGA MOTORES,M300 S4 P1000 ; GERA BEEP
;   exportFileFormat,gcode
;   celebration,0
;   celebrationSong,Star Wars
;   postProcessing,
;   defaultSpeed,3600
;   outlineUnderspeed,0.4
;   solidInfillUnderspeed,0.7
;   supportUnderspeed,0.9
;   rapidXYspeed,9000
;   rapidZspeed,2400
;   minBridgingArea,5
;   bridgingExtraInflation,2
;   bridgingExtrusionMultiplier,0.9
;   bridgingSpeedMultiplier,1
;   useFixedBridgingAngle,0
;   fixedBridgingAngle,0
;   applyBridgingToPerimeters,1
;   filamentDiameters,1.74|1.74|1.74|1.74|1.74|1.74
;   filamentPricesPerKg,120|120|120|120|120|120
;   filamentDensities,1.08|1.25|1.25|1.25|1.25|1.25
;   useMinPrintHeight,0
;   minPrintHeight,265.23
;   useMaxPrintHeight,0
;   maxPrintHeight,0
;   useDiaphragm,0
;   diaphragmLayerInterval,20
;   robustSlicing,1
;   mergeAllIntoSolid,0
;   onlyRetractWhenCrossingOutline,1
;   retractBetweenLayers,1
;   useRetractionMinTravel,0
;   retractionMinTravel,3
;   retractWhileWiping,0
;   onlyWipeOutlines,1
;   avoidCrossingOutline,0
;   maxMovementDetourFactor,3
;   toolChangeRetractionDistance,12
;   toolChangeExtraRestartDistance,-0.5
;   toolChangeRetractionSpeed,600
;   externalThinWallType,1
;   internalThinWallType,1
;   thinWallAllowedOverlapPercentage,30
;   singleExtrusionMinLength,1
;   singleExtrusionMinPrintingWidthPercentage,50
;   singleExtrusionMaxPrintingWidthPercentage,200
;   singleExtrusionEndpointExtension,0.2
;   horizontalSizeCompensation,0
G90
M82
M106 S255
G4 P500
M106 S94
M140 S60
M190 S60
M109 S100; FAZ AQUECIMENTO DO BICO
M402
G28; HOME GERAL
M400
G29 V4 T ; AUTO NIVELAMENTO
M400
M104 S230; FAZ PRE AQUECIMENTO DO BICO
G1 X1 Y1 Z0.8 F1000; VAI PRA PONTO DE PURGA
M109 S230; FAZ AQUECIMENTO DO BICO
G92 E0; RESETA EXTRUSOR
G1 X1.0 E9.0 F1000.0 ; PURGA
G1 X100.0 E12.5 F1000.0 ; PURGA
M117 IMPRIMINDO...
M400
; process Process1
; layer 1, Z = 0.300
T0
G92 E0.0000
G1 E-3.5000 F3600
; feature skirt
; tool H0.300 W0.660
G1 Z0.300 F2400
G1 X125.390 Y88.899 F9000
G1 E0.0000 F3600
G92 E0.0000
G1 X128.899 Y85.390 E0.3719 F1440
G1 X132.866 Y85.390 E0.6692
G1 X133.646 Y84.610 E0.7519
G1 X149.609 Y84.610 E1.9481
G1 X153.118 Y88.119 E2.3200
G1 X153.118 Y89.910 E2.4542
G1 X157.909 Y89.910 E2.8133
G1 X161.418 Y93.419 E3.1851
G1 X161.418 Y94.910 E3.2969
G1 X166.565 Y94.910 E3.6826
G1 X168.681 Y95.744 E3.8531
G1 X173.569 Y100.301 E4.3539
G1 X174.562 Y102.587 E4.5407
G1 X174.562 Y111.881 E5.2372
G1 X171.054 Y115.390 E5.6091
G1 X162.946 Y115.390 E6.2166
G1 X159.446 Y111.890 E6.5876
G1 X152.470 Y111.890 E7.1104
G1 X152.056 Y111.861 E7.1415
G1 X150.987 Y111.712 E7.2224
G1 X150.317 Y111.538 E7.2743
G1 X149.409 Y111.186 E7.3473
G1 X148.913 Y110.939 E7.3888
G1 X148.085 Y110.427 E7.4618
G1 X147.542 Y109.997 E7.5137
G1 X146.681 Y109.136 E7.6049
G1 X146.251 Y108.593 E7.6568
G1 X145.702 Y107.706 E7.7350
G1 X145.407 Y107.079 E7.7869
G1 X145.344 Y106.890 E7.8018
G1 X133.646 Y106.890 E8.6785
G1 X130.138 Y103.381 E9.0503
G1 X130.138 Y102.610 E9.1081
G1 X128.899 Y102.610 E9.2009
G1 X125.390 Y99.101 E9.5728
G1 X125.390 Y88.899 E10.3374
G92 E0.0000
G1 E-3.5000 F3600
G1 X126.050 Y89.172 F9000
G1 E0.0000 F3600
G92 E0.0000
G1 X129.172 Y86.050 E0.3309 F1440
G1 X133.140 Y86.050 E0.6282
G1 X133.920 Y85.270 E0.7109
G1 X149.335 Y85.270 E1.8662
G1 X152.458 Y88.392 E2.1971
G1 X152.458 Y90.570 E2.3603
G1 X157.635 Y90.570 E2.7483
G1 X160.758 Y93.692 E3.0792
G1 X160.758 Y95.570 E3.2199
G1 X166.440 Y95.570 E3.6457
G1 X168.323 Y96.312 E3.7974
G1 X173.018 Y100.691 E4.2786
G1 X173.902 Y102.724 E4.4447
G1 X173.902 Y111.608 E5.1105
G1 X170.780 Y114.730 E5.4414
G1 X163.220 Y114.730 E6.0080
G1 X160.098 Y111.608 E6.3389
G1 X160.098 Y111.230 E6.3672
G1 X152.493 Y111.230 E6.9371
G1 X152.124 Y111.204 E6.9648
G1 X151.116 Y111.064 E7.0411
G1 X150.520 Y110.909 E7.0872
G1 X149.675 Y110.582 E7.1551
G1 X149.234 Y110.362 E7.1920
G1 X148.465 Y109.886 E7.2599
G1 X147.982 Y109.503 E7.3060
G1 X147.175 Y108.696 E7.3916
G1 X146.792 Y108.213 E7.4377
G1 X146.283 Y107.391 E7.5102
G1 X146.021 Y106.833 E7.5564
G1 X145.819 Y106.230 E7.6041
G1 X133.920 Y106.230 E8.4958
G1 X130.798 Y103.108 E8.8267
G1 X130.798 Y101.950 E8.9135
G1 X129.172 Y101.950 E9.0353
G1 X126.050 Y98.828 E9.3662
G1 X126.050 Y89.172 E10.0898
G92 E0.0000
G1 E-3.5000 F3600
; feature inner perimeter
G1 X137.778 Y92.250 F9000
G1 E0.0000 F3600
G92 E0.0000
G1 X145.478 Y92.250 E0.5770 F1008
G1 X145.478 Y97.550 E0.9742
G1 X153.778 Y97.550 E1.5962
G1 X153.778 Y102.550 E1.9709
G1 X164.778 Y102.550 E2.7953
G1 X166.601 Y104.250 E2.9821
G1 X152.716 Y104.250 E4.0227
G1 X152.693 Y104.249 E4.0244
G1 X152.611 Y104.234 E4.0306
G1 X152.569 Y104.217 E4.0340
G1 X152.531 Y104.194 E4.0373
G1 X152.490 Y104.156 E4.0415
G1 X152.454 Y104.099 E4.0466
G1 X152.439 Y104.045 E4.0508
G1 X152.428 Y103.924 E4.0599
G1 X152.428 Y99.250 E4.4102
G1 X137.778 Y99.250 E5.5080
G1 X137.778 Y92.350 E6.0251
G1 X137.778 Y92.250 F1008
G1 X137.118 Y91.590 F9000
G92 E0.0000
G1 X146.138 Y91.590 E0.6760 F1008
G1 X146.138 Y96.890 E1.0732
G1 X154.438 Y96.890 E1.6952
G1 X154.438 Y101.890 E2.0699
G1 X165.038 Y101.890 E2.8642
G1 X167.582 Y104.263 E3.1250
G1 X167.582 Y108.410 E3.4358
G1 X166.418 Y108.410 E3.5231
G1 X166.418 Y104.910 E3.7854
G1 X152.700 Y104.910 E4.8133
G1 X152.617 Y104.906 E4.8196
G1 X152.430 Y104.871 E4.8339
G1 X152.274 Y104.811 E4.8464
G1 X152.132 Y104.723 E4.8589
G1 X151.991 Y104.595 E4.8732
G1 X151.967 Y104.565 E4.8760
G1 X151.855 Y104.384 E4.8920
G1 X151.839 Y104.349 E4.8949
G1 X151.787 Y104.166 E4.9091
G1 X151.768 Y103.954 E4.9251
G1 X151.768 Y99.910 E5.2282
G1 X137.118 Y99.910 E6.3261
G1 X137.118 Y91.690 E6.9421
G1 X137.118 Y91.590 F1008
; feature outer perimeter
G1 X136.458 Y90.930 F9000
G92 E0.0000
G1 X146.798 Y90.930 E0.7749 F576
G1 X146.798 Y96.230 E1.1721
G1 X155.098 Y96.230 E1.7941
G1 X155.098 Y101.230 E2.1688
G1 X165.298 Y101.230 E2.9332
G1 X168.242 Y103.976 E3.2349
G1 X168.242 Y109.070 E3.6167
G1 X165.758 Y109.070 E3.8029
G1 X165.758 Y105.570 E4.0652
G1 X152.685 Y105.570 E5.0449
G1 X152.540 Y105.563 E5.0557
G1 X152.248 Y105.509 E5.0780
G1 X151.978 Y105.404 E5.0997
G1 X151.732 Y105.252 E5.1214
G1 X151.513 Y105.052 E5.1436
G1 X151.430 Y104.952 E5.1534
G1 X151.269 Y104.693 E5.1762
G1 X151.217 Y104.574 E5.1859
G1 X151.136 Y104.288 E5.2082
G1 X151.108 Y103.985 E5.2310
G1 X151.108 Y100.570 E5.4869
G1 X136.458 Y100.570 E6.5848
G1 X136.458 Y91.030 E7.2997
G1 X136.458 Y90.930 F576
G92 E0.0000
G1 E-3.5000 F3600
G1 X138.458 Y90.930 F576
; feature internal single extrusion
; tool H0.300 W0.505
G1 X167.000 Y104.649 F9000
G1 E0.0000 F3600
G92 E0.0000
G1 X167.000 Y107.918 E0.1874 F576
G1 X167.000 Y108.018 F576
; feature solid layer
; tool H0.300 W0.660
G1 X164.312 Y103.111 F9000
G92 E0.0000
G1 X164.890 Y103.689 E0.0613 F1008
G1 X163.956 Y103.689 E0.1312
G1 X163.378 Y103.111 E0.1925
G1 X162.445 Y103.111 E0.2624
G1 X163.023 Y103.689 E0.3237
G1 X162.089 Y103.689 E0.3936
G1 X161.511 Y103.111 E0.4549
G1 X160.578 Y103.111 E0.5248
G1 X161.156 Y103.689 E0.5861
G1 X160.223 Y103.689 E0.6560
G1 X159.645 Y103.111 E0.7173
G1 X158.711 Y103.111 E0.7872
G1 X159.289 Y103.689 E0.8485
G1 X158.356 Y103.689 E0.9184
G1 X157.778 Y103.111 E0.9797
G1 X156.845 Y103.111 E1.0497
G1 X157.423 Y103.689 E1.1109
G1 X156.489 Y103.689 E1.1809
G1 X155.911 Y103.111 E1.2421
G1 X154.978 Y103.111 E1.3121
G1 X155.556 Y103.689 E1.3733
G1 X154.622 Y103.689 E1.4433
G1 X154.044 Y103.111 E1.5045
G1 X153.217 Y103.111 E1.5666
G1 X153.217 Y102.283 E1.6286
G1 X152.989 Y102.055 E1.6528
G1 X152.989 Y101.122 E1.7227
G1 X153.217 Y101.350 E1.7469
G1 X153.217 Y100.416 E1.8168
G1 X152.989 Y100.188 E1.8410
G1 X152.989 Y99.255 E1.9109
G1 X153.217 Y99.483 E1.9351
G1 X153.217 Y98.550 E2.0051
G1 X152.778 Y98.111 E2.0515
G1 X151.845 Y98.111 E2.1215
G1 X152.423 Y98.689 E2.1827
G1 X151.489 Y98.689 E2.2527
G1 X150.911 Y98.111 E2.3140
G1 X149.978 Y98.111 E2.3839
G1 X150.556 Y98.689 E2.4452
G1 X149.622 Y98.689 E2.5151
G1 X149.044 Y98.111 E2.5764
G1 X148.111 Y98.111 E2.6463
G1 X148.689 Y98.689 E2.7076
G1 X147.756 Y98.689 E2.7775
G1 X147.178 Y98.111 E2.8388
G1 X146.244 Y98.111 E2.9087
G1 X146.822 Y98.689 E2.9700
G1 X145.889 Y98.689 E3.0399
G1 X145.311 Y98.111 E3.1012
G1 X144.917 Y98.111 E3.1307
G1 X144.917 Y97.717 E3.1603
G1 X140.011 Y92.811 E3.6802
G1 X140.944 Y92.811 E3.7502
G1 X144.917 Y96.783 E4.1712
G1 X144.917 Y95.850 E4.2411
G1 X141.878 Y92.811 E4.5632
G1 X142.811 Y92.811 E4.6331
G1 X144.917 Y94.917 E4.8563
G1 X144.917 Y93.983 E4.9262
G1 X143.744 Y92.811 E5.0505
G1 X144.678 Y92.811 E5.1204
G1 X144.846 Y92.979 E5.1382
G1 X144.917 Y93.050 F1008
G1 X139.077 Y92.811 F9000
G92 E0.0000
G1 X144.955 Y98.689 E0.6230 F1008
G1 X144.022 Y98.689 E0.6929
G1 X138.339 Y93.005 E1.2953
G1 X138.339 Y93.939 E1.3652
G1 X143.089 Y98.689 E1.8686
G1 X142.155 Y98.689 E1.9386
G1 X138.339 Y94.872 E2.3431
G1 X138.339 Y95.806 E2.4131
G1 X141.222 Y98.689 E2.7186
G1 X140.289 Y98.689 E2.7886
G1 X138.339 Y96.739 E2.9952
G1 X138.339 Y97.672 E3.0652
G1 X139.355 Y98.689 E3.1729
G1 X138.422 Y98.689 E3.2429
G1 X138.409 Y98.676 E3.2442
G1 X138.339 Y98.606 F1008
G92 E0.0000
G1 E-3.5000 F3600
G1 X152.989 Y102.989 F9000
G1 E0.0000 F3600
G92 E0.0000
G1 X153.618 Y103.618 E0.0667 F1008
G1 X153.689 Y103.689 F1008
G92 E0.0000
G1 E-3.5000 F3600
; feature support
G1 X133.646 Y91.720 F9000
G1 E0.0000 F3600
G92 E0.0000
G1 X135.388 Y93.462 E0.1846 F1296
G1 X135.388 Y95.536 E0.3400
G1 X131.720 Y91.868 E0.7287
G1 X131.720 Y93.943 E0.8842
G1 X134.058 Y96.280 E1.1319
G1 X131.983 Y96.280 E1.2873
G1 X131.791 Y96.087 E1.3078
G1 X131.720 Y96.017 F1296
G92 E0.0000
G1 E-3.5000 F3600
; layer 2, Z = 0.400
M106 S113
M104 S210 T0
; feature inner perimeter
; tool H0.100 W0.440
G1 Z0.400 F2400
G1 X137.228 Y91.700 F9000
G1 E0.0000 F3600
G92 E0.0000
G1 X146.028 Y91.700 E0.1466 F1568
G1 X146.028 Y97.000 E0.2348
G1 X154.328 Y97.000 E0.3730
G1 X154.328 Y102.000 E0.4563
G1 X164.994 Y102.000 E0.6339
G1 X167.472 Y104.311 E0.6904
G1 X167.472 Y108.300 E0.7568
G1 X166.528 Y108.300 E0.7725
G1 X166.528 Y104.800 E0.8308
G1 X152.703 Y104.800 E1.0611
G1 X152.629 Y104.797 E1.0623
G1 X152.460 Y104.765 E1.0652
G1 X152.323 Y104.712 E1.0676
G1 X152.198 Y104.635 E1.0700
G1 X152.071 Y104.519 E1.0729
G1 X152.056 Y104.501 E1.0733
G1 X151.952 Y104.333 E1.0766
G1 X151.943 Y104.312 E1.0770
G1 X151.896 Y104.146 E1.0798
G1 X151.878 Y103.949 E1.0831
G1 X151.878 Y99.800 E1.1522
G1 X137.228 Y99.800 E1.3962
G1 X137.228 Y91.800 E1.5294
G1 X137.228 Y91.700 F1568
G1 X136.788 Y91.260 F9000
G92 E0.0000
G1 X146.468 Y91.260 E0.1612 F1568
G1 X146.468 Y96.560 E0.2495
G1 X154.768 Y96.560 E0.3877
G1 X154.768 Y101.560 E0.4710
G1 X165.168 Y101.560 E0.6442
G1 X167.912 Y104.120 E0.7067
G1 X167.912 Y108.740 E0.7836
G1 X166.088 Y108.740 E0.8140
G1 X166.088 Y105.240 E0.8723
G1 X152.693 Y105.240 E1.0954
G1 X152.579 Y105.235 E1.0973
G1 X152.339 Y105.190 E1.1013
G1 X152.126 Y105.107 E1.1051
G1 X151.932 Y104.987 E1.1089
G1 X151.752 Y104.823 E1.1130
G1 X151.698 Y104.759 E1.1144
G1 X151.562 Y104.538 E1.1187
G1 X151.528 Y104.462 E1.1201
G1 X151.461 Y104.227 E1.1241
G1 X151.438 Y103.970 E1.1285
G1 X151.438 Y100.240 E1.1906
G1 X136.788 Y100.240 E1.4345
