; G-Code generated by Simplify3D(R) Version 4.1.2
; Aug 17, 2021 at 8:00:38 PM
; Settings Summary
;   processName,Process1
;   applyToModels,Encaixe ABS
;   profileName,CORE A1v2 ABS - Voron Parts
;   profileVersion,2021-07-27 01:40:01
;   baseProfile,ABS Q. MEDIA
;   printMaterial,
;   printQuality,
;   printExtruders,
;   extruderName,Extruder 1
;   extruderToolheadNumber,0
;   extruderDiameter,0.4
;   extruderAutoWidth,0
;   extruderWidth,0.44
;   extrusionMultiplier,0.95
;   extruderUseRetract,1
;   extruderRetractionDistance,3.5
;   extruderExtraRestartDistance,0
;   extruderRetractionZLift,0
;   extruderRetractionSpeed,3600
;   extruderUseCoasting,1
;   extruderCoastingDistance,0.1
;   extruderUseWipe,1
;   extruderWipeDistance,2
;   primaryExtruder,0
;   layerHeight,0.2
;   topSolidLayers,5
;   bottomSolidLayers,5
;   perimeterOutlines,4
;   printPerimetersInsideOut,1
;   startPointOption,2
;   startPointOriginX,0
;   startPointOriginY,0
;   sequentialIslands,0
;   spiralVaseMode,0
;   firstLayerHeightPercentage,100
;   firstLayerWidthPercentage,100
;   firstLayerUnderspeed,0.4
;   useRaft,0
;   raftExtruder,0
;   raftTopLayers,3
;   raftBaseLayers,2
;   raftOffset,3
;   raftSeparationDistance,0.14
;   raftTopInfill,100
;   aboveRaftSpeedMultiplier,0.3
;   useSkirt,1
;   skirtExtruder,0
;   skirtLayers,1
;   skirtOutlines,2
;   skirtOffset,2
;   usePrimePillar,0
;   primePillarExtruder,999
;   primePillarWidth,12
;   primePillarLocation,7
;   primePillarSpeedMultiplier,1
;   useOozeShield,0
;   oozeShieldExtruder,999
;   oozeShieldOffset,2
;   oozeShieldOutlines,1
;   oozeShieldSidewallShape,1
;   oozeShieldSidewallAngle,30
;   oozeShieldSpeedMultiplier,1
;   infillExtruder,0
;   internalInfillPattern,Grid
;   externalInfillPattern,Rectilinear
;   infillPercentage,40
;   outlineOverlapPercentage,15
;   infillExtrusionWidthPercentage,100
;   minInfillLength,5
;   infillLayerInterval,1
;   internalInfillAngles,45,-45
;   overlapInternalInfillAngles,1
;   externalInfillAngles,45,-45
;   generateSupport,1
;   supportExtruder,0
;   supportInfillPercentage,30
;   supportExtraInflation,0.4
;   supportBaseLayers,0
;   denseSupportExtruder,0
;   denseSupportLayers,0
;   denseSupportInfillPercentage,70
;   supportLayerInterval,1
;   supportHorizontalPartOffset,0.4
;   supportUpperSeparationLayers,1
;   supportLowerSeparationLayers,1
;   supportType,0
;   supportGridSpacing,4
;   maxOverhangAngle,60
;   supportAngles,45
;   temperatureName,Extruder 1 Temperature,Heated Bed
;   temperatureNumber,0,0
;   temperatureSetpointCount,2,1
;   temperatureSetpointLayers,1,2,1
;   temperatureSetpointTemperatures,240,225,110
;   temperatureStabilizeAtStartup,1,1
;   temperatureHeatedBed,0,1
;   fanLayers,1,3
;   fanSpeeds,0,50
;   blipFanToFullPower,1
;   adjustSpeedForCooling,1
;   minSpeedLayerTime,10
;   minCoolingSpeedSlowdown,50
;   increaseFanForCooling,1
;   minFanLayerTime,45
;   maxCoolingFanSpeed,100
;   increaseFanForBridging,1
;   bridgingFanSpeed,100
;   use5D,1
;   relativeEdistances,0
;   allowEaxisZeroing,1
;   independentExtruderAxes,0
;   includeM10123,0
;   stickySupport,1
;   applyToolheadOffsets,0
;   gcodeXoffset,0
;   gcodeYoffset,0
;   gcodeZoffset,0
;   overrideMachineDefinition,1
;   machineTypeOverride,0
;   strokeXoverride,290
;   strokeYoverride,170
;   strokeZoverride,293
;   originOffsetXoverride,0
;   originOffsetYoverride,0
;   originOffsetZoverride,0
;   homeXdirOverride,-1
;   homeYdirOverride,-1
;   homeZdirOverride,-1
;   flipXoverride,1
;   flipYoverride,-1
;   flipZoverride,1
;   toolheadOffsets,0,0|0,0|0,0|0,0|0,0|0,0
;   overrideFirmwareConfiguration,0
;   firmwareTypeOverride,RepRap (Marlin/Repetier/Sprinter)
;   GPXconfigOverride,r2
;   baudRateOverride,115200
;   overridePrinterModels,0
;   printerModelsOverride
;   startingGcode,G28; HOME GERAL,G29 S1,M400,M104 S[extruder0_temperature]; FAZ PRE AQUECIMENTO DO BICO,G1 X35 Y5 Z0.5 F1000; VAI PRA PONTO DE PURGA,M109 S[extruder0_temperature]; FAZ AQUECIMENTO DO BICO,G92 E0; RESETA EXTRUSOR,G1 X16 E9.0 F1000.0 ; PURGA,G1 X116.00 E12.5 F1000.0 ; PURGA,M400
;   layerChangeGcode,
;   retractionGcode,
;   toolChangeGcode,
;   endingGcode,M107 ; DESLIGA FAN,G1 X145 Y170 Z293,M104 S0 ; DESLIGA AQUECIMENTO BICO,M140 S0 ; DESLIGA AQUECIMENTO MESA,M84 ; DESLIGA MOTORES,
;   exportFileFormat,gcode
;   celebration,0
;   celebrationSong,Star Wars
;   postProcessing,
;   defaultSpeed,4800
;   outlineUnderspeed,0.4
;   solidInfillUnderspeed,0.7
;   supportUnderspeed,0.9
;   rapidXYspeed,12000
;   rapidZspeed,3000
;   minBridgingArea,5
;   bridgingExtraInflation,2
;   bridgingExtrusionMultiplier,0.9
;   bridgingSpeedMultiplier,1
;   useFixedBridgingAngle,0
;   fixedBridgingAngle,0
;   applyBridgingToPerimeters,1
;   filamentDiameters,1.74|1.74|1.74|1.74|1.74|1.74
;   filamentPricesPerKg,120|120|120|120|120|120
;   filamentDensities,1.08|1.25|1.25|1.25|1.25|1.25
;   useMinPrintHeight,0
;   minPrintHeight,69
;   useMaxPrintHeight,0
;   maxPrintHeight,0
;   useDiaphragm,0
;   diaphragmLayerInterval,20
;   robustSlicing,1
;   mergeAllIntoSolid,0
;   onlyRetractWhenCrossingOutline,1
;   retractBetweenLayers,1
;   useRetractionMinTravel,0
;   retractionMinTravel,3
;   retractWhileWiping,1
;   onlyWipeOutlines,1
;   avoidCrossingOutline,0
;   maxMovementDetourFactor,3
;   toolChangeRetractionDistance,12
;   toolChangeExtraRestartDistance,-0.5
;   toolChangeRetractionSpeed,600
;   externalThinWallType,1
;   internalThinWallType,1
;   thinWallAllowedOverlapPercentage,30
;   singleExtrusionMinLength,1
;   singleExtrusionMinPrintingWidthPercentage,50
;   singleExtrusionMaxPrintingWidthPercentage,200
;   singleExtrusionEndpointExtension,0.2
;   horizontalSizeCompensation,0
G90
M82
M106 S0
M140 S110
M190 S110
G28; HOME GERAL
G29 S1
M400
M104 S240; FAZ PRE AQUECIMENTO DO BICO
G1 X35 Y5 Z0.5 F1000; VAI PRA PONTO DE PURGA
M109 S240; FAZ AQUECIMENTO DO BICO
G92 E0; RESETA EXTRUSOR
G1 X16 E9.0 F1000.0 ; PURGA
G1 X116.00 E12.5 F1000.0 ; PURGA
M400
; process Process1
; layer 1, Z = 0.200
T0
G92 E0.0000
G1 E-3.5000 F3600
; feature skirt
; tool H0.200 W0.440
G1 Z0.200 F3000
G1 X133.272 Y66.356 F12000
G1 E0.0000 F3600
G92 E0.0000
G1 X133.414 Y66.274 E0.0058 F1920
G1 X268.957 Y-0.692 E5.3210
G1 X271.044 Y0.015 E5.3985
G1 X283.902 Y26.038 E6.4190
G1 X283.195 Y28.125 E6.4965
G1 X150.205 Y93.831 E11.7116
G1 X20.247 Y170.651 E17.0191
G1 X18.173 Y170.171 E17.0940
G1 X6.143 Y151.893 E17.8633
G1 X6.588 Y149.735 E17.9407
G1 X133.272 Y66.356 E23.2727
G92 E0.0000
G1 E-3.5000 F3600
G1 X133.502 Y66.731 F12000
G1 E0.0000 F3600
G92 E0.0000
G1 X133.621 Y66.663 E0.0048 F1920
G1 X268.989 Y-0.217 E5.3132
G1 X270.731 Y0.373 E5.3778
G1 X283.427 Y26.070 E6.3855
G1 X282.837 Y27.812 E6.4502
G1 X149.995 Y93.443 E11.6595
G1 X20.175 Y170.183 E16.9614
G1 X18.444 Y169.782 E17.0239
G1 X6.611 Y151.803 E17.7806
G1 X6.982 Y150.002 E17.8452
G1 X133.502 Y66.731 E23.1703
G92 E0.0000
G1 E-3.5000 F3600
; feature inner perimeter
G1 X135.433 Y69.961 F12000
G1 E0.0000 F3600
G92 E0.0000
G1 X268.449 Y4.243 E5.2161 F1344
G1 X278.966 Y25.530 E6.0509
G1 X148.203 Y90.135 E11.1787
G1 X20.290 Y165.747 E16.4027
G1 X11.104 Y151.791 E16.9901
G1 X135.350 Y70.016 E22.2195
G1 X135.433 Y69.961 F1344
G1 X135.214 Y69.579 F12000
G92 E0.0000
G1 X268.649 Y3.654 E5.2326 F1344
G1 X279.555 Y25.730 E6.0982
G1 X148.413 Y90.522 E11.2409
G1 X20.153 Y166.339 E16.4791
G1 X10.495 Y151.665 E17.0968
G1 X135.130 Y69.634 E22.3425
G1 X135.214 Y69.579 F1344
G1 X134.995 Y69.197 F12000
G92 E0.0000
G1 X268.848 Y3.065 E5.2490 F1344
G1 X280.145 Y25.929 E6.1456
G1 X148.623 Y90.909 E11.3032
G1 X20.016 Y166.931 E16.5555
G1 X9.885 Y151.539 E17.2034
G1 X134.911 Y69.252 E22.4656
G1 X134.995 Y69.197 F1344
; feature outer perimeter
G1 X134.775 Y68.814 F12000
G92 E0.0000
G1 X269.048 Y2.475 E5.2654 F768
G1 X280.734 Y26.129 E6.1930
G1 X148.832 Y91.296 E11.3654
G1 X19.879 Y167.523 E16.6320
G1 X9.276 Y151.414 E17.3100
G1 X134.692 Y68.869 E22.5886
G1 X134.775 Y68.814 F768
G1 X136.568 Y67.928 F768
; feature inner perimeter
G1 X172.402 Y64.770 F12000
G92 E0.0000
G1 X172.523 Y65.376 E0.0217 F1344
G1 X172.748 Y65.953 E0.0435
G1 X173.069 Y66.481 E0.0652
G1 X173.477 Y66.945 E0.0869
G1 X173.959 Y67.332 E0.1087
G1 X174.501 Y67.628 E0.1304
G1 X175.087 Y67.827 E0.1521
G1 X175.698 Y67.920 E0.1738
G1 X176.316 Y67.906 E0.1956
G1 X176.922 Y67.785 E0.2173
G1 X177.500 Y67.560 E0.2391
G1 X178.032 Y67.235 E0.2610
G1 X178.490 Y66.832 E0.2825
G1 X178.877 Y66.350 E0.3042
G1 X179.174 Y65.808 E0.3260
G1 X179.372 Y65.222 E0.3477
G1 X179.465 Y64.611 E0.3694
G1 X179.452 Y63.993 E0.3911
G1 X179.330 Y63.387 E0.4129
G1 X179.106 Y62.811 E0.4346
G1 X178.785 Y62.283 E0.4563
G1 X178.377 Y61.819 E0.4781
G1 X177.895 Y61.432 E0.4998
G1 X177.353 Y61.135 E0.5215
G1 X176.767 Y60.937 E0.5433
G1 X176.156 Y60.843 E0.5650
G1 X175.538 Y60.857 E0.5867
G1 X174.932 Y60.978 E0.6085
G1 X174.356 Y61.203 E0.6302
G1 X173.828 Y61.524 E0.6519
G1 X173.364 Y61.932 E0.6736
G1 X172.977 Y62.414 E0.6954
G1 X172.680 Y62.956 E0.7171
G1 X172.482 Y63.542 E0.7388
G1 X172.388 Y64.153 E0.7606
G1 X172.400 Y64.670 E0.7788
G1 X172.402 Y64.770 F1344
G1 X172.841 Y64.722 F12000
G92 E0.0000
G1 X172.947 Y65.253 E0.0190 F1344
G1 X173.144 Y65.757 E0.0381
G1 X173.425 Y66.219 E0.0571
G1 X173.782 Y66.626 E0.0761
G1 X174.204 Y66.964 E0.0951
G1 X174.679 Y67.224 E0.1141
G1 X175.191 Y67.398 E0.1332
G1 X175.726 Y67.480 E0.1522
G1 X176.267 Y67.467 E0.1712
G1 X176.798 Y67.361 E0.1902
G1 X177.303 Y67.164 E0.2093
G1 X177.770 Y66.879 E0.2285
G1 X178.171 Y66.527 E0.2473
G1 X178.509 Y66.105 E0.2663
G1 X178.769 Y65.630 E0.2853
G1 X178.943 Y65.117 E0.3044
G1 X179.025 Y64.583 E0.3234
G1 X179.012 Y64.042 E0.3424
G1 X178.906 Y63.511 E0.3614
G1 X178.710 Y63.007 E0.3805
G1 X178.429 Y62.544 E0.3995
G1 X178.072 Y62.138 E0.4185
G1 X177.650 Y61.800 E0.4375
G1 X177.175 Y61.540 E0.4566
G1 X176.663 Y61.366 E0.4756
G1 X176.128 Y61.284 E0.4946
G1 X175.587 Y61.296 E0.5136
G1 X175.056 Y61.402 E0.5327
G1 X174.552 Y61.599 E0.5517
G1 X174.090 Y61.880 E0.5707
G1 X173.683 Y62.237 E0.5897
G1 X173.345 Y62.659 E0.6088
G1 X173.085 Y63.134 E0.6278
G1 X172.911 Y63.646 E0.6468
G1 X172.829 Y64.181 E0.6658
G1 X172.839 Y64.622 E0.6813
G1 X172.841 Y64.722 F1344
G1 X173.281 Y64.674 F12000
G92 E0.0000
G1 X173.371 Y65.129 E0.0163 F1344
G1 X173.540 Y65.561 E0.0326
G1 X173.781 Y65.958 E0.0490
G1 X174.087 Y66.306 E0.0653
G1 X174.449 Y66.597 E0.0816
G1 X174.856 Y66.820 E0.0979
G1 X175.296 Y66.969 E0.1142
G1 X175.755 Y67.039 E0.1305
G1 X176.219 Y67.028 E0.1469
G1 X176.674 Y66.937 E0.1632
G1 X177.107 Y66.769 E0.1795
G1 X177.508 Y66.523 E0.1960
G1 X177.852 Y66.222 E0.2121
G1 X178.142 Y65.859 E0.2284
G1 X178.365 Y65.452 E0.2448
G1 X178.514 Y65.013 E0.2611
G1 X178.584 Y64.554 E0.2774
G1 X178.573 Y64.090 E0.2937
G1 X178.483 Y63.635 E0.3100
G1 X178.314 Y63.202 E0.3263
G1 X178.073 Y62.806 E0.3427
G1 X177.767 Y62.457 E0.3590
G1 X177.405 Y62.167 E0.3753
G1 X176.998 Y61.944 E0.3916
G1 X176.558 Y61.795 E0.4079
G1 X176.099 Y61.725 E0.4242
G1 X175.635 Y61.735 E0.4406
G1 X175.180 Y61.826 E0.4569
G1 X174.748 Y61.995 E0.4732
G1 X174.351 Y62.236 E0.4895
G1 X174.002 Y62.542 E0.5058
G1 X173.712 Y62.904 E0.5221
G1 X173.489 Y63.311 E0.5385
G1 X173.340 Y63.751 E0.5548
G1 X173.270 Y64.210 E0.5711
G1 X173.278 Y64.574 E0.5839
G1 X173.281 Y64.674 F1344
; feature outer perimeter
G1 X173.720 Y64.625 F12000
G92 E0.0000
G1 X173.795 Y65.005 E0.0136 F768
G1 X173.936 Y65.366 E0.0272
G1 X174.137 Y65.696 E0.0408
G1 X174.392 Y65.987 E0.0544
G1 X174.695 Y66.229 E0.0681
G1 X175.034 Y66.415 E0.0817
G1 X175.401 Y66.539 E0.0953
G1 X175.783 Y66.598 E0.1089
G1 X176.170 Y66.589 E0.1225
G1 X176.550 Y66.513 E0.1361
G1 X176.911 Y66.373 E0.1497
G1 X177.246 Y66.168 E0.1635
G1 X177.532 Y65.916 E0.1769
G1 X177.774 Y65.614 E0.1905
G1 X177.960 Y65.275 E0.2041
G1 X178.085 Y64.908 E0.2178
G1 X178.143 Y64.525 E0.2314
G1 X178.134 Y64.138 E0.2450
G1 X178.059 Y63.759 E0.2586
G1 X177.918 Y63.398 E0.2722
G1 X177.717 Y63.067 E0.2858
G1 X177.462 Y62.776 E0.2994
G1 X177.159 Y62.534 E0.3130
G1 X176.820 Y62.348 E0.3266
G1 X176.453 Y62.224 E0.3402
G1 X176.071 Y62.166 E0.3539
G1 X175.684 Y62.174 E0.3675
G1 X175.304 Y62.250 E0.3811
G1 X174.943 Y62.391 E0.3947
G1 X174.612 Y62.592 E0.4083
G1 X174.322 Y62.847 E0.4219
G1 X174.079 Y63.149 E0.4355
G1 X173.894 Y63.489 E0.4491
G1 X173.769 Y63.856 E0.4627
G1 X173.711 Y64.238 E0.4763
G1 X173.717 Y64.525 E0.4864
G1 X173.720 Y64.625 F768
G92 E0.0000
G1 X173.795 Y65.005 E-1.8146 F768
G1 X173.926 Y65.340 E-3.5000
G1 X173.936 Y65.366 F768
G1 X174.137 Y65.696
G1 X174.392 Y65.987
G1 X174.695 Y66.229
G1 X174.751 Y66.260
; feature inner perimeter
G1 X205.723 Y49.068 F12000
G1 E0.0000 F3600
G92 E0.0000
G1 X206.044 Y49.596 E0.0217 F1344
G1 X206.452 Y50.061 E0.0435
G1 X206.934 Y50.447 E0.0652
G1 X207.476 Y50.744 E0.0869
G1 X208.062 Y50.942 E0.1087
G1 X208.673 Y51.036 E0.1304
G1 X209.290 Y51.022 E0.1521
G1 X209.897 Y50.901 E0.1738
G1 X210.474 Y50.676 E0.1957
G1 X211.007 Y50.350 E0.2176
G1 X211.465 Y49.948 E0.2390
G1 X211.851 Y49.465 E0.2608
G1 X212.148 Y48.923 E0.2825
G1 X212.347 Y48.338 E0.3042
G1 X212.440 Y47.727 E0.3260
G1 X212.426 Y47.109 E0.3477
G1 X212.305 Y46.503 E0.3694
G1 X212.081 Y45.927 E0.3911
G1 X211.760 Y45.399 E0.4129
G1 X211.352 Y44.934 E0.4346
G1 X210.870 Y44.548 E0.4563
G1 X210.327 Y44.251 E0.4781
G1 X209.742 Y44.053 E0.4998
G1 X209.131 Y43.959 E0.5215
G1 X208.513 Y43.973 E0.5433
G1 X207.907 Y44.094 E0.5650
G1 X207.331 Y44.318 E0.5867
G1 X206.803 Y44.640 E0.6084
G1 X206.339 Y45.047 E0.6302
G1 X205.952 Y45.530 E0.6519
G1 X205.655 Y46.072 E0.6736
G1 X205.457 Y46.657 E0.6954
G1 X205.363 Y47.268 E0.7171
G1 X205.377 Y47.886 E0.7388
G1 X205.498 Y48.492 E0.7606
G1 X205.686 Y48.975 E0.7788
G1 X205.723 Y49.068 F1344
G1 X206.119 Y48.873 F12000
G92 E0.0000
G1 X206.400 Y49.335 E0.0190 F1344
G1 X206.757 Y49.742 E0.0380
G1 X207.179 Y50.080 E0.0571
G1 X207.654 Y50.340 E0.0761
G1 X208.166 Y50.513 E0.0951
G1 X208.701 Y50.595 E0.1141
G1 X209.242 Y50.583 E0.1332
G1 X209.773 Y50.477 E0.1522
G1 X210.278 Y50.280 E0.1713
G1 X210.745 Y49.995 E0.1905
G1 X211.146 Y49.642 E0.2093
G1 X211.484 Y49.220 E0.2283
G1 X211.744 Y48.746 E0.2473
G1 X211.918 Y48.233 E0.2663
G1 X211.999 Y47.698 E0.2854
G1 X211.987 Y47.157 E0.3044
G1 X211.881 Y46.627 E0.3234
G1 X211.685 Y46.123 E0.3424
G1 X211.404 Y45.660 E0.3614
G1 X211.047 Y45.254 E0.3805
G1 X210.625 Y44.915 E0.3995
G1 X210.150 Y44.655 E0.4185
G1 X209.637 Y44.482 E0.4375
G1 X209.103 Y44.400 E0.4566
G1 X208.562 Y44.412 E0.4756
G1 X208.031 Y44.518 E0.4946
G1 X207.527 Y44.714 E0.5136
G1 X207.064 Y44.996 E0.5327
G1 X206.658 Y45.353 E0.5517
G1 X206.319 Y45.775 E0.5707
G1 X206.060 Y46.249 E0.5897
G1 X205.886 Y46.762 E0.6088
G1 X205.804 Y47.297 E0.6278
G1 X205.816 Y47.838 E0.6468
G1 X205.922 Y48.368 E0.6658
G1 X206.082 Y48.779 E0.6813
G1 X206.119 Y48.873 F1344
G1 X206.515 Y48.677 F12000
G92 E0.0000
G1 X206.756 Y49.073 E0.0163 F1344
G1 X207.062 Y49.422 E0.0326
G1 X207.424 Y49.712 E0.0489
G1 X207.831 Y49.935 E0.0653
G1 X208.271 Y50.084 E0.0816
G1 X208.730 Y50.154 E0.0979
G1 X209.194 Y50.144 E0.1142
G1 X209.649 Y50.053 E0.1305
G1 X210.082 Y49.884 E0.1469
G1 X210.483 Y49.639 E0.1634
G1 X210.826 Y49.337 E0.1795
G1 X211.117 Y48.975 E0.1958
G1 X211.340 Y48.568 E0.2121
G1 X211.488 Y48.128 E0.2284
G1 X211.559 Y47.670 E0.2447
G1 X211.548 Y47.206 E0.2611
G1 X211.457 Y46.751 E0.2774
G1 X211.289 Y46.318 E0.2937
G1 X211.048 Y45.922 E0.3100
G1 X210.742 Y45.573 E0.3263
G1 X210.379 Y45.283 E0.3427
G1 X209.972 Y45.060 E0.3590
G1 X209.533 Y44.911 E0.3753
